www/assets/icons/filter_9_plus.svg

<svg width="24" height="24" viewBox="0 0 24 24" xmlns="http://www.w3.org/2000/svg" fill='currentColor'><path d="M3 5H1V21C1 22.1 1.9 23 3 23H19V21H3V5ZM14 12V8C14 6.89 13.1 6 12 6H11C9.9 6 9 6.89 9 8V9C9 10.11 9.9 11 11 11H12V12H9V14H12C13.1 14 14 13.11 14 12ZM11 9V8H12V9H11ZM21 1H7C5.9 1 5 1.9 5 3V17C5 18.1 5.9 19 7 19H21C22.1 19 23 18.1 23 17V3C23 1.9 22.1 1 21 1ZM21 9H19V7H17V9H15V11H17V13H19V11H21V17H7V3H21V9Z"/></svg>

<svg xmlns="http://www.w3.org/2000/svg" width="24" height="24" viewBox="0 0 24 24" fill='currentColor'><path d="M3 5H1v16c0 1.1.9 2 2 2h16v-2H3zm11 7V8a2 2 0 0 0-2-2h-1a2 2 0 0 0-2 2v1a2 2 0 0 0 2 2h1v1H9v2h3a2 2 0 0 0 2-2m-3-3V8h1v1zm10-8H7c-1.1 0-2 .9-2 2v14c0 1.1.9 2 2 2h14c1.1 0 2-.9 2-2V3c0-1.1-.9-2-2-2m0 8h-2V7h-2v2h-2v2h2v2h2v-2h2v6H7V3h14z"/></svg>
